docs/assets/images/calc-svg/chamfer-10.svg

<svg width="78" height="44" viewBox="0 0 78 44" fill="none" xmlns="http://www.w3.org/2000/svg">
<path d="M1.6974 35.9699L1 13.2544L27.6296 18.3907C31.6617 19.1684 34.5751 22.6974 34.5751 26.8037V39.2123C34.5751 40.7618 33.6587 42.0525 32.3832 42.6473C31.6368 42.9954 30.7674 43.1052 29.8867 42.889L1.6974 35.9699Z" fill="#D2D2D2"/>
<path d="M71.2613 4.58863L46.6302 1L1 13.2544L27.6296 18.3907C31.6617 19.1684 34.5751 22.6974 34.5751 26.8037V39.2123C34.5751 40.7618 33.6587 42.0525 32.3832 42.6473L74.5264 24.7298C75.7976 24.1908 76.7182 22.9334 76.7182 21.4241V10.8983C76.7182 7.73186 74.3946 5.04514 71.2613 4.58863Z" fill="#D2D2D2"/>
<path d="M1 13.2544L46.6302 1L71.2613 4.58863C74.3946 5.04514 76.7182 7.73186 76.7182 10.8983V21.4241C76.7182 22.9334 75.7976 24.1908 74.5264 24.7298L32.3832 42.6473M1 13.2544L1.6974 35.9699L29.8867 42.889C30.7674 43.1052 31.6368 42.9954 32.3832 42.6473M1 13.2544L27.6296 18.3907C31.6617 19.1684 34.5751 22.6974 34.5751 26.8037V39.2123C34.5751 40.7618 33.6587 42.0525 32.3832 42.6473" stroke="#838383"/>
</svg>

<svg width="78" height="44" fill="none" xmlns="http://www.w3.org/2000/svg"><path d="M1.697 35.97L1 13.254l26.63 5.137a8.568 8.568 0 016.945 8.413v12.408a3.78 3.78 0 01-2.192 3.435 3.755 3.755 0 01-2.496.242l-28.19-6.92z" fill="#D2D2D2"/><path d="M71.261 4.589L46.631 1 1 13.254l26.63 5.137a8.568 8.568 0 016.945 8.413v12.408a3.78 3.78 0 01-2.192 3.435L74.526 24.73a3.584 3.584 0 002.192-3.306V10.898a6.376 6.376 0 00-5.457-6.31z" fill="#D2D2D2"/><path d="M1 13.254L46.63 1l24.631 3.589a6.376 6.376 0 015.457 6.31v10.525c0 1.51-.92 2.767-2.192 3.306L32.383 42.647M1 13.254l.697 22.716 28.19 6.919c.88.216 1.75.106 2.496-.242M1 13.254l26.63 5.137a8.568 8.568 0 016.945 8.413v12.408a3.78 3.78 0 01-2.192 3.435" stroke="#838383"/></svg>
